X:1
T:Du Meine Seele, Singe, 76.76 D
T:Du Meine Seele, Singe, 76.76 D
T:Johan Georg Ebeling, 1666
T:Public Domain Courtesy of the Cyber Hymnal™
C:Johan Georg Ebeling, 1666
Z:Public Domain
Z:Courtesy of the Cyber Hymnal™
%%score ( 1 2 ) ( 3 4 )
L:1/8
Q:1/4=115
M:4/4
K:Bb
V:1 treble 
V:2 treble 
V:3 bass 
V:4 bass 
V:1
 B,2 | [B,D]2 [DF]2 [FB]2 [Fd]2 | [Fc]2 [Fc]4 [FA]2 | [FB]2 [DF]2 F3 z E | [B,D]6 B,2 | %5
 [B,D]2 [DF]2 [FB]2 [Fd]2 | [Fc]2 [Fc]4 [FA]2 | [FB]2 [DF]2 F3 z E | [B,D]6 [DB]2 | %9
 B3 z F [B,G]2 [CG]2 | F4 [CF]2 [Fd]2 | [Fc]2 [DB]2 A3 z A | [B,G]6 [DF]2 | %13
 [DB]2 [Fc]2 [Dd]2 [DB]2 | [Ge]4 [Fd]2 [Fc]2 | [DB]2 [GB]2 B3 z A | [FB]6 |] %17
V:2
 B,2 | x8 | x8 | x4 C2 A,2 x | x6 B,2 | x8 | x8 | x4 C2 A,2 x | x8 | D2 B,2 x5 | (C2 D2) x4 | %11
 x4 D2 D2 x | x8 | x8 | x8 | x4 F2 F2 x | x6 |] %17
V:3
 [B,,D,]2 | [B,,F,]2 [B,,B,]2 [D,B,]2 [B,,B,]2 | [F,A,]2 [F,A,]4 [F,C]2 | %3
 [D,B,]2 [B,,B,]2 [A,,F,]2 [F,,F,]2 x | [B,,F,]6 [B,,D,]2 | [B,,F,]2 [B,,B,]2 [D,B,]2 [B,,B,]2 | %6
 [F,A,]2 [F,A,]4 [F,C]2 | [D,B,]2 [B,,B,]2 [A,,F,]2 [F,,F,]2 x | [D,F,]6 [B,,F,]2 | %9
 [E,G,]2 [D,F,]2 E,2 [C,E,]2 x | ([A,,F,]2 [B,,B,]2) [F,A,]2 [B,,B,]2 | %11
 [F,A,]2 G,2 [D,G,]2 [D,^F,]2 x | [G,,G,]6 [D,A,]2 | G,2 [F,A,]2 B,2 [G,B,]2 | %14
 [E,B,]4 B,2 [F,A,]2 | [G,B,]2 [E,E]2 [F,C]2 [F,C]2 x | [B,,D]6 |] %17
V:4
 x2 | x8 | x8 | x9 | x8 | x8 | x8 | x9 | x8 | x4 E,2 x3 | x8 | x2 G,2 x5 | x8 | G,2 B,2 x4 | %14
 x4 B,2 x2 | x9 | x6 |] %17

